X: 502
T:Jacky Tan
T:Jacky Tar
C:Norman Blake
L:1/8
Q:1/2=110
M:4/4
K:G
|:"Em"e2ed efge|"G"d2B2 B2dc|"D"ABde (3faf ef|"A"d2A2 A2Bd|!
"Em"e2ef "G"g2fe|dBGB d2cB|\
"D"AGFE DEFA|1 (3GA"A"G E2 E2Bd:|2(3GA"A"G E2 E2GA||!
|:"Em"BGEG BGEG|BAGF E2FG|\
"D"AFDF AFDF|AGFE D2EF|!
"Em"GFGB "G"g2fe|dBGB d2cB|\
"D"AGFE DEFA|1(3GA"A"G E2 E2GA:|2(3GA"A"G E2 E4||!

